Blog/public/Images/javascript_logo.svg

<svg xmlns="http://www.w3.org/2000/svg"  viewBox="0 0 50 50" fill = "white"><path d="M 43.335938 4 L 6.667969 4 C 5.195313 4 4 5.195313 4 6.667969 L 4 43.332031 C 4 44.804688 5.195313 46 6.667969 46 L 43.332031 46 C 44.804688 46 46 44.804688 46 43.335938 L 46 6.667969 C 46 5.195313 44.804688 4 43.335938 4 Z M 27 36.183594 C 27 40.179688 24.65625 42 21.234375 42 C 18.140625 42 15.910156 39.925781 15 38 L 18.144531 36.097656 C 18.75 37.171875 19.671875 38 21 38 C 22.269531 38 23 37.503906 23 35.574219 L 23 23 L 27 23 Z M 35.675781 42 C 32.132813 42 30.121094 40.214844 29 38 L 32 36 C 32.816406 37.335938 33.707031 38.613281 35.589844 38.613281 C 37.171875 38.613281 38 37.824219 38 36.730469 C 38 35.425781 37.140625 34.960938 35.402344 34.199219 L 34.449219 33.789063 C 31.695313 32.617188 29.863281 31.148438 29.863281 28.039063 C 29.863281 25.179688 32.046875 23 35.453125 23 C 37.878906 23 39.621094 23.84375 40.878906 26.054688 L 37.910156 27.964844 C 37.253906 26.789063 36.550781 26.328125 35.453125 26.328125 C 34.335938 26.328125 33.628906 27.039063 33.628906 27.964844 C 33.628906 29.109375 34.335938 29.570313 35.972656 30.28125 L 36.925781 30.691406 C 40.171875 32.078125 42 33.496094 42 36.683594 C 42 40.117188 39.300781 42 35.675781 42 Z"/></svg>

<svg xmlns="http://www.w3.org/2000/svg" viewBox="0 0 50 50" fill="white" xmlns:v="https://vecta.io/nano"><path d="M43.336 4H6.668A2.67 2.67 0 0 0 4 6.668v36.664A2.67 2.67 0 0 0 6.668 46h36.664A2.67 2.67 0 0 0 46 43.336V6.668A2.67 2.67 0 0 0 43.336 4zM27 36.184C27 40.18 24.656 42 21.234 42c-3.094 0-5.324-2.074-6.234-4l3.145-1.902C18.75 37.172 19.672 38 21 38c1.27 0 2-.496 2-2.426V23h4zM35.676 42c-3.543 0-5.555-1.785-6.676-4l3-2c.816 1.336 1.707 2.613 3.59 2.613 1.582 0 2.41-.789 2.41-1.883 0-1.305-.859-1.77-2.598-2.531l-.953-.41c-2.754-1.172-4.586-2.641-4.586-5.75 0-2.859 2.184-5.039 5.59-5.039 2.426 0 4.168.844 5.426 3.055l-2.969 1.91c-.656-1.176-1.359-1.637-2.457-1.637-1.117 0-1.824.711-1.824 1.637 0 1.145.707 1.605 2.344 2.316l.953.41C40.172 32.078 42 33.496 42 36.684 42 40.117 39.301 42 35.676 42z"/></svg>
